X:1
T:Title
%%score { ( 1 3 5 ) | ( 2 4 ) }
L:1/8
M:4/4
K:C
V:1 treble nm="Grand Piano"
V:3 treble 
V:5 treble 
V:2 bass 
V:4 bass 
V:1
 z4 z2[Q:1/4=108] E[DF] | [EG]2 [Ec]2 [Ec]2 G2 | A6 AA | [^FA]2 [Fd]2 [Fd]2 [FA]2 |[M:3/4] B6 | %5
[M:1/4] GG |[M:4/4] [EG]2 [Ge]2 [Gd]2 [Gc]2 | [FA]4- [FA][Ac][GB]A | G2 c2 e2 d2 |[M:3/4] [CEc]6 | %10
[M:1/4] EF |[M:4/4] G6 z2 | A6 z2 | F6 z2 |[M:3/4] G6 |[M:1/4] EF |[M:4/4] G2 [Ge]2 [Gd]2 [Gc]2 | %17
 z2 C2 z c[GB]A | G2 c2 e2 d2 |[M:7/8] c2- [Fc-]2 [Ec]3 |] %20
V:2
 z4 z2 [C,C][C,C] | [C,C]2 [C,G,]2 [C,G,]2 [E,C]2 | [F,CF]6 [F,CF][F,CF] | %3
 [D,D]2 [D,A,]2 [D,A,]2 [D,D]2 |[M:3/4][K:treble] [G,DG]6 |[M:1/4] [G,B,F][G,B,F] | %6
[M:4/4][K:bass] [C,C]2 [C,C]2 [D,B,]2 [E,C]2 | [F,C]6 [F,C][K:treble][F,CF] | %8
 [G,CE]2 [G,CE]2 [G,CG]2[K:bass] [G,,B,F]2 |[M:3/4] C,6 |[M:1/4] CD |[M:4/4] E6[K:treble] z2 | %12
 F6[K:bass] z2 | D6[K:treble] z2 |[M:3/4] E6[K:bass] |[M:1/4] CD | %16
[M:4/4] E2 [C,C][C,C] [D,B,]2 [E,C]2 | [F,C]2 F,2 z[K:treble] A z F | %18
 [G,CE]2 [G,CE]2 [G,CG]2[K:bass] [G,,B,F]2 |[M:7/8] z2 A,2 G,3 |] %20
V:3
 x8 | x8 | x8 | x8 |[M:3/4] x6 |[M:1/4] x2 |[M:4/4] x8 | x8 | x8 |[M:3/4] x6 |[M:1/4] x2 | %11
[M:4/4] z2 CC C2 c2 | z2 C2 C2 DE | z2 B,B, B,2 A2 |[M:3/4] z2 C2 C2 |[M:1/4] x2 |[M:4/4] x8 | %17
 [FA]6 z2 | x8 |[M:7/8] [CE]2 z z z z2 |] %20
V:4
 x8 | x8 | x8 | x8 |[M:3/4][K:treble] x6 |[M:1/4] x2 |[M:4/4][K:bass] x8 | x7[K:treble] x | %8
 x6[K:bass] x2 |[M:3/4] x6 |[M:1/4] x2 |[M:4/4] z2 C,C, C,2[K:treble] E2 | z2[K:bass] F,2 F,2 B,C | %13
 z2 G,G, G,2[K:treble] F2 |[M:3/4] z2[K:bass] C,2 C,2 |[M:1/4] x2 |[M:4/4] x8 | %17
 z4 F,2[K:treble] [F,C]2 | x6[K:bass] x2 |[M:7/8] C,-C,-C,- C,- C,3 |] %20
V:5
 x8 | x8 | x8 | x8 |[M:3/4] x6 |[M:1/4] x2 |[M:4/4] x8 | x8 | x8 |[M:3/4] x6 |[M:1/4] x2 | %11
[M:4/4] x8 | x8 | x8 |[M:3/4] x6 |[M:1/4] x2 |[M:4/4] x8 | z4 C2 z2 | x8 |[M:7/8] x7 |] %20

